icons/assets/dark/camera.svg

<svg width="48" height="48" viewBox="0 0 48 48" fill="none" xmlns="http://www.w3.org/2000/svg">
<path d="M7 37.8125H5.25C5.25 38.779 6.0335 39.5625 7 39.5625V37.8125ZM7 16.5625V14.8125C6.0335 14.8125 5.25 15.596 5.25 16.5625H7ZM41 37.8125V39.5625C41.9665 39.5625 42.75 38.779 42.75 37.8125H41ZM41 16.5625H42.75C42.75 15.596 41.9665 14.8125 41 14.8125V16.5625ZM32.5 16.5625L31.0439 17.5332C31.3685 18.0201 31.9149 18.3125 32.5 18.3125V16.5625ZM15.5 16.5625V18.3125C16.0851 18.3125 16.6315 18.0201 16.9561 17.5332L15.5 16.5625ZM19.75 10.1875V8.4375C19.1649 8.4375 18.6185 8.72993 18.2939 9.21677L19.75 10.1875ZM28.25 10.1875L29.7061 9.21677C29.3815 8.72993 28.8351 8.4375 28.25 8.4375V10.1875ZM8.75 37.8125V16.5625H5.25V37.8125H8.75ZM7 39.5625H41V36.0625H7V39.5625ZM42.75 37.8125V16.5625H39.25V37.8125H42.75ZM41 14.8125H32.5V18.3125H41V14.8125ZM7 18.3125H15.5V14.8125H7V18.3125ZM16.9561 17.5332L21.2061 11.1582L18.2939 9.21677L14.0439 15.5918L16.9561 17.5332ZM33.9561 15.5918L29.7061 9.21677L26.7939 11.1582L31.0439 17.5332L33.9561 15.5918ZM28.25 8.4375H19.75V11.9375H28.25V8.4375ZM28.625 26.125C28.625 28.6793 26.5543 30.75 24 30.75V34.25C28.4873 34.25 32.125 30.6123 32.125 26.125H28.625ZM24 30.75C21.4457 30.75 19.375 28.6793 19.375 26.125H15.875C15.875 30.6123 19.5127 34.25 24 34.25V30.75ZM19.375 26.125C19.375 23.5707 21.4457 21.5 24 21.5V18C19.5127 18 15.875 21.6377 15.875 26.125H19.375ZM24 21.5C26.5543 21.5 28.625 23.5707 28.625 26.125H32.125C32.125 21.6377 28.4873 18 24 18V21.5Z" fill="#62646A"/>
</svg>

<svg width="48" height="48" fill="none" xmlns="http://www.w3.org/2000/svg"><path d="M7 37.813H5.25c0 .966.784 1.75 1.75 1.75v-1.75zm0-21.25v-1.75a1.75 1.75 0 00-1.75 1.75H7zm34 21.25v1.75a1.75 1.75 0 001.75-1.75H41zm0-21.25h1.75a1.75 1.75 0 00-1.75-1.75v1.75zm-8.5 0l-1.456.97c.325.487.87.78 1.456.78v-1.75zm-17 0v1.75a1.75 1.75 0 001.456-.78l-1.456-.97zm4.25-6.375v-1.75a1.75 1.75 0 00-1.456.779l1.456.97zm8.5 0l1.456-.971a1.75 1.75 0 00-1.456-.78v1.75zM8.75 37.811v-21.25h-3.5v21.25h3.5zM7 39.563h34v-3.5H7v3.5zm35.75-1.75v-21.25h-3.5v21.25h3.5zm-1.75-23h-8.5v3.5H41v-3.5zm-34 3.5h8.5v-3.5H7v3.5zm9.956-.779l4.25-6.375-2.912-1.941-4.25 6.375 2.912 1.941zm17-1.941l-4.25-6.375-2.912 1.941 4.25 6.375 2.912-1.941zM28.25 8.437h-8.5v3.5h8.5v-3.5zm.375 17.688A4.625 4.625 0 0124 30.75v3.5a8.125 8.125 0 008.125-8.125h-3.5zM24 30.75a4.625 4.625 0 01-4.625-4.625h-3.5A8.125 8.125 0 0024 34.25v-3.5zm-4.625-4.625A4.625 4.625 0 0124 21.5V18a8.125 8.125 0 00-8.125 8.125h3.5zM24 21.5a4.625 4.625 0 014.625 4.625h3.5A8.125 8.125 0 0024 18v3.5z" fill="#62646A"/></svg>
